X:3
T:Music in the Glen
R:reel
C:Syracuse session setting (transposed to A)
L:1/8
M:4/4
K:A %Transposed from G
E|&quot;A&quot;A2cA FAED|CEAc BABc|&quot;D&quot;d2fd &quot;D(C)&quot;c2ec|&quot;Bm&quot;dBcA &quot;E&quot;BAFE|
  &quot;A&quot;A2cA FAED|CEAc BABc|&quot;D&quot;defg agaf|&quot;E&quot;edcB &quot;A&quot;A3:|
B|&quot;A&quot;cAeA fAed|cAec &quot;E&quot;dBGB|&quot;A&quot;cAeA fAeg|aecA &quot;E&quot;BAFA|
  &quot;A&quot;cAeA fAeg|aega &quot;E&quot;bgeg|&quot;F#m&quot;afge fdec|&quot;D&quot;dBcA &quot;E&quot;BAF:|
</abc>
